Flat-Remix-Blue/mimetypes/scalable/application-x-blender.svg

<svg xmlns="http://www.w3.org/2000/svg" xmlns:xlink="http://www.w3.org/1999/xlink" width="36pt" height="36pt" version="1.1" viewBox="0 0 36 36"> <defs> <clipPath id="clip1"> <path d="M 20 2 L 31 2 L 31 13 L 20 13 Z M 20 2"/> </clipPath> <clipPath id="clip2"> <path d="M 20.515625 2.625 L 30.328125 12.4375 L 22.023438 12.4375 C 21.292969 12.4375 20.515625 11.660156 20.515625 10.929688 Z M 20.515625 2.625"/> </clipPath> <image id="image6" width="36" height="36" xlink:href="data:image/png;base64,iVBORw0KGgoAAAANSUhEUgAAACQAAAAkCAYAAADhAJiYAAAABmJLR0QA/wD/AP+gvaeTAAAAmklEQVRYhe3T0QqCQBBG4aOtYEoUvf9Lildltl00C4tkbBeTIP+BAUEYP1YW1Pcqh53B9kbgaVPcwQF0tAmGSrMZ6AKcDQXw+AUVHEAtcAUaewYYgYmC3+cBCkAPnDJQMcoDVNnebgEqQnmAclTz4d0I3P4JStc9AjXvk4qLWQV53LLeEOl05gw4A3dgcPiuUkoppZRSSqk99gLWvSJpuDnlsAAAAABJRU5ErkJggg=="/> </defs> <g> <path style="fill:rgb(6.666%,17.647%,36.078%);fill-opacity:0.996078" d="M 7.347656 3.152344 C 6.675781 3.152344 6.042969 3.785156 6.042969 4.457031 L 6.042969 31.847656 C 6.042969 32.480469 6.714844 33.152344 7.347656 33.152344 L 28.21875 33.152344 C 28.851562 33.152344 29.523438 32.480469 29.523438 31.847656 L 29.523438 11.632812 L 21.042969 3.152344 Z M 7.347656 3.152344"/> <g clip-path="url(#clip1)"> <g clip-path="url(#clip2)"> <use xlink:href="#image6"/> </g> </g> <path style="fill:rgb(26.666%,37.647%,56.078%);fill-opacity:0.996078" d="M 21.042969 3.152344 L 29.523438 11.632812 L 22.347656 11.632812 C 21.714844 11.632812 21.042969 10.960938 21.042969 10.328125 Z M 21.042969 3.152344"/> <path style="fill:rgb(100.000%,100.000%,100.000%)" d="M 15.679688 12.605469 C 15.328125 12.601562 15.03125 12.734375 14.90625 12.992188 L 14.839844 13.132812 C 14.640625 13.542969 14.964844 14.105469 15.5625 14.394531 L 17.777344 15.460938 L 11.46875 16.332031 C 10.808594 16.425781 10.328125 16.859375 10.390625 17.3125 L 10.414062 17.46875 C 10.476562 17.917969 11.054688 18.210938 11.714844 18.117188 L 15.628906 17.578125 C 15.617188 17.589844 15.605469 17.601562 15.59375 17.613281 L 10.976562 22.796875 C 10.535156 23.296875 10.453125 23.9375 10.792969 24.242188 L 10.910156 24.347656 C 11.25 24.648438 11.882812 24.492188 12.324219 23.996094 L 14.882812 21.121094 C 15.238281 23.707031 17.460938 25.632812 20.089844 25.636719 C 22.996094 25.636719 25.351562 23.296875 25.351562 20.410156 C 25.347656 18.695312 24.496094 17.085938 23.070312 16.113281 C 22.945312 15.984375 22.785156 15.867188 22.597656 15.777344 L 16.34375 12.769531 C 16.121094 12.664062 15.890625 12.609375 15.679688 12.605469 Z M 20.089844 17.042969 C 21.949219 17.042969 23.457031 18.550781 23.457031 20.410156 C 23.457031 22.273438 21.949219 23.78125 20.089844 23.78125 C 18.226562 23.78125 16.71875 22.273438 16.71875 20.410156 C 16.71875 18.550781 18.226562 17.042969 20.089844 17.042969 Z M 20.089844 18.242188 C 18.890625 18.242188 17.917969 19.214844 17.917969 20.410156 C 17.917969 21.609375 18.890625 22.582031 20.089844 22.582031 C 21.285156 22.582031 22.257812 21.609375 22.257812 20.410156 C 22.257812 19.214844 21.285156 18.242188 20.089844 18.242188 Z M 20.089844 18.242188"/> </g> </svg>

<svg width="36pt" height="36pt" version="1.1" viewBox="0 0 36 36" xmlns="http://www.w3.org/2000/svg"><defs><filter id="a" x="-.192" y="-.192" width="1.384" height="1.384" color-interpolation-filters="sRGB"><feGaussianBlur stdDeviation="0.67843748"/></filter></defs><path d="m7.3477 3.1523c-0.67188 0-1.3047 0.63281-1.3047 1.3047v27.391c0 0.63281 0.67188 1.3047 1.3047 1.3047h20.871c0.63281 0 1.3047-0.67188 1.3047-1.3047v-20.215l-8.4805-8.4805z" fill="#102c5b" fill-opacity=".99608"/><path d="m20.668 3.5272 8.4805 8.4805h-7.1758c-0.63281 0-1.3047-0.67187-1.3047-1.3047z" filter="url(#a)" opacity=".2"/><path d="m21.043 3.1523 8.4805 8.4805h-7.1758c-0.63281 0-1.3047-0.67187-1.3047-1.3047z" fill="#435f8e" fill-opacity=".99608"/><path d="m15.68 12.605c-0.35156-0.003907-0.64844 0.12891-0.77344 0.38672l-0.066406 0.14062c-0.19922 0.41016 0.125 0.97266 0.72266 1.2617l2.2148 1.0664-6.3086 0.87109c-0.66016 0.09375-1.1406 0.52734-1.0781 0.98047l0.023437 0.15625c0.0625 0.44922 0.64063 0.74219 1.3008 0.64844l3.9141-0.53906c-0.011718 0.011719-0.023437 0.023437-0.035156 0.035156l-4.6172 5.1836c-0.44141 0.5-0.52344 1.1406-0.18359 1.4453l0.11719 0.10547c0.33984 0.30078 0.97266 0.14453 1.4141-0.35156l2.5586-2.875c0.35547 2.5859 2.5781 4.5117 5.207 4.5156 2.9062 0 5.2617-2.3398 5.2617-5.2266-0.003906-1.7148-0.85547-3.3242-2.2812-4.2969-0.125-0.12891-0.28516-0.24609-0.47266-0.33594l-6.2539-3.0078c-0.22266-0.10547-0.45312-0.16016-0.66406-0.16406zm4.4102 4.4375c1.8594 0 3.3672 1.5078 3.3672 3.3672 0 1.8633-1.5078 3.3711-3.3672 3.3711-1.8633 0-3.3711-1.5078-3.3711-3.3711 0-1.8594 1.5078-3.3672 3.3711-3.3672zm0 1.1992c-1.1992 0-2.1719 0.97266-2.1719 2.168 0 1.1992 0.97266 2.1719 2.1719 2.1719 1.1953 0 2.168-0.97266 2.168-2.1719 0-1.1953-0.97266-2.168-2.168-2.168z" fill="#fff"/></svg>
